X: 12879
T: Ferry Crossing, The
R: polka
M: 2/4
K: Amajor
|:B>c df|Be fg|a2 a>g|ab ge|
df ed|ef dB|ed ce|1 cB Bf:|2 cB Be||
f>g ab|bf bf|ed ce|Ae ce|
AB ce|Ae ce|fa ge|~f2 fe|
f>g ab|bf bf|ef ~g2|~a2 ge|
df ed|ef dB|ed ce|cB Bf||

